packages/ffe-icons/icons/open/300/sm/shopping_bag.svg

<svg xmlns="http://www.w3.org/2000/svg" height="20" viewBox="0 -960 960 960" width="20"><path d="M276.025-116.001q-27.024 0-45.524-18.65t-18.5-45.658v-431.382q0-27.008 18.65-45.658 18.65-18.65 45.658-18.65h69.692v-26q0-56.154 37.423-99.077 37.422-42.923 96.576-42.923 56.154 0 95.076 38.923 38.923 38.923 38.923 95.077v34h69.692q27.008 0 45.658 18.65 18.65 18.65 18.65 45.658v431.382q0 27.008-18.662 45.658-18.662 18.65-45.686 18.65H276.025Zm.284-51.999h407.382q4.616 0 8.463-3.846 3.846-3.847 3.846-8.463v-431.382q0-4.616-3.846-8.463-3.847-3.846-8.463-3.846h-69.692v70.001q0 11.069-7.404 18.534Q599.19-528 588.211-528q-10.98 0-18.595-7.465-7.615-7.465-7.615-18.534V-624H397.999v70.001q0 11.069-7.404 18.534Q383.19-528 372.211-528q-10.98 0-18.595-7.465-7.615-7.465-7.615-18.534V-624h-69.692q-4.616 0-8.463 3.846-3.846 3.847-3.846 8.463v431.382q0 4.616 3.846 8.463 3.847 3.846 8.463 3.846Zm121.69-507.999h164.002v-34q0-34.316-23.905-58.158Q514.191-792 479.788-792q-34.404 0-58.096 23.843-23.693 23.842-23.693 58.158v34ZM264-168V-624-168Z"/></svg>

<svg xmlns="http://www.w3.org/2000/svg" height="20" viewBox="0 -960 960 960" width="20"><path d="M276.03-116q-27.03 0-45.53-18.65T212-180.31v-431.38q0-27.01 18.65-45.66Q249.3-676 276.31-676H346v-26q0-56.15 37.42-99.08Q420.85-844 480-844q56.15 0 95.08 38.92Q614-766.15 614-710v34h69.69q27.01 0 45.66 18.65Q748-638.7 748-611.69v431.38q0 27.01-18.66 45.66Q710.68-116 683.65-116H276.03Zm.28-52h407.38q4.62 0 8.46-3.85 3.85-3.84 3.85-8.46v-431.38q0-4.62-3.85-8.46-3.84-3.85-8.46-3.85H614v70q0 11.07-7.41 18.53-7.4 7.47-18.38 7.47-10.98 0-18.59-7.47Q562-542.93 562-554v-70H398v70q0 11.07-7.41 18.53-7.4 7.47-18.38 7.47-10.98 0-18.59-7.47Q346-542.93 346-554v-70h-69.69q-4.62 0-8.46 3.85-3.85 3.84-3.85 8.46v431.38q0 4.62 3.85 8.46 3.84 3.85 8.46 3.85ZM398-676h164v-34q0-34.32-23.9-58.16Q514.19-792 479.79-792q-34.41 0-58.1 23.84Q398-744.32 398-710v34ZM264-168v-456 456Z"/></svg>
